src/assets/images/spend-transfer-icon.svg

<svg width="36" height="36" viewBox="0 0 36 36" fill="none" xmlns="http://www.w3.org/2000/svg">
<path d="M21.1641 32.8882H18.3798V31.8986H21.1641V32.8882ZM24.1388 30.2622H18.3798V31.2518H24.1388V30.2622ZM30.7131 25.8933V33.4791C30.7131 34.1738 30.1488 34.7391 29.4552 34.7391H17.3101C16.6153 34.7391 16.0502 34.1739 16.0502 33.4791V32.0885C8.77233 31.9009 2.9096 25.9231 2.9096 18.6019C2.9096 16.8724 3.23044 15.1975 3.8622 13.6135C1.65614 12.9866 0.0351562 10.9558 0.0351562 8.55222C0.0351562 5.64951 2.39667 3.28792 5.29938 3.28792C7.52006 3.28792 9.42251 4.67188 10.1938 6.62235C12.1047 5.63144 14.2381 5.10873 16.4028 5.10873C23.8418 5.10873 29.8939 11.1617 29.8939 18.6018C29.8939 20.7007 29.4038 22.7687 28.4712 24.6333H29.4552C30.1488 24.6333 30.7131 25.1986 30.7131 25.8933ZM4.80459 10.9399V11.8433H5.7941V10.913C6.44463 10.7728 6.93387 10.1936 6.93387 9.50172C6.93387 8.70536 6.28601 8.05743 5.48965 8.05743C4.6523 8.05743 4.6523 7.82631 4.6523 7.60272C4.6523 7.35093 4.85627 7.14611 5.10701 7.14611H5.6719C5.81955 7.14611 5.94436 7.27176 5.94436 7.42047V7.91526H6.93387V7.42047C6.93387 6.76481 6.43282 6.22445 5.7941 6.16272V5.26096H4.80459V6.18888C4.15308 6.32859 3.66286 6.90909 3.66286 7.60265C3.66286 8.26155 3.97976 9.04694 5.48972 9.04694C5.74038 9.04694 5.94443 9.25091 5.94443 9.50165C5.94443 9.75238 5.74045 9.95629 5.48972 9.95629H4.92476C4.77457 9.95629 4.65237 9.83416 4.65237 9.6839V9.18911H3.66286V9.6839C3.66286 10.3392 4.16496 10.8791 4.80459 10.9399ZM17.3101 24.6333H18.1075L18.1315 21.7767C17.8014 21.5005 17.0894 20.8826 16.39 20.1315C15.041 18.6827 14.46 17.533 14.6138 16.6167C14.6884 16.1723 14.9805 15.5705 15.949 15.2271C18.0086 14.4957 19.4845 15.6605 20.9117 16.7869C22.076 17.7059 23.1756 18.5739 24.6236 18.5739C26.1645 18.5739 27.7328 18.5531 28.9035 18.5327C28.8842 14.9946 27.3885 11.7997 25.0019 9.53456C23.9269 11.5988 21.6269 12.714 19.731 12.7574C19.6878 12.7584 19.6445 12.7589 19.6016 12.7589C17.7587 12.7589 16.3319 11.8477 15.6746 10.2443C15.3601 9.47662 14.9901 9.49342 14.1828 9.60459C13.7254 9.66752 13.2069 9.73895 12.7296 9.5181C12.3837 9.35723 11.9629 8.93662 11.4282 7.13071C11.1038 7.27134 10.7847 7.42504 10.4726 7.5933C10.5301 7.9045 10.5617 8.22463 10.5617 8.55222C10.5617 11.4538 8.20111 13.8145 5.29945 13.8145C5.15011 13.8145 5.00273 13.8067 4.85655 13.7944C4.67634 14.2261 4.52194 14.6655 4.39235 15.1114C6.27616 15.2292 6.80864 15.5718 7.05523 15.8668C7.47211 16.3665 7.5517 17.0014 7.6287 17.6154C7.7547 18.6201 7.83795 19.2839 9.09809 19.4452C11.1142 19.7038 12.6252 20.9416 13.3526 22.931C14.2292 25.3282 13.741 28.2857 12.1814 30.3696C13.3957 30.8063 14.6963 31.0606 16.0502 31.0982V25.8933C16.0502 25.1986 16.6154 24.6333 17.3101 24.6333ZM29.7236 29.3247H17.0397V33.4792C17.0397 33.6258 17.1636 33.7495 17.3102 33.7495H29.4552C29.6032 33.7495 29.7236 33.6283 29.7236 33.4792V29.3247H29.7236ZM29.7236 25.8933C29.7236 25.7442 29.6031 25.6229 29.4551 25.6229H17.3101C17.1636 25.6229 17.0397 25.7467 17.0397 25.8933V26.2238H29.7236V25.8933ZM35.4771 21.4506L33.2515 22.7116C33.5767 21.3748 33.7418 19.9959 33.7418 18.6019C33.7418 13.9697 31.9383 9.61499 28.6632 6.3397C25.3884 3.06454 21.0341 1.26074 16.4027 1.26074C14.2995 1.26074 12.2459 1.6327 10.299 2.3662L10.6479 3.29214C12.4829 2.60083 14.4191 2.25032 16.4027 2.25032C25.4179 2.25032 32.7523 9.5856 32.7523 18.6018C32.7523 19.8973 32.6012 21.1786 32.3036 22.4213L31.0615 20.2289L30.2005 20.7167L32.0413 23.9658C32.106 24.08 32.2134 24.1638 32.3399 24.1988C32.3833 24.2108 32.4276 24.2167 32.4718 24.2167C32.5565 24.2167 32.6407 24.1949 32.7157 24.1524L35.9648 22.3115L35.4771 21.4506Z" fill="#0000FF"/>
</svg>

<svg xmlns="http://www.w3.org/2000/svg" width="36" height="36" fill="none" viewBox="0 0 36 36"><path fill="#00f" d="M21.164 32.888H18.38v-.99h2.784zm2.975-2.626h-5.76v.99h5.76zm6.574-4.369v7.586a1.26 1.26 0 0 1-1.258 1.26H17.31c-.695 0-1.26-.565-1.26-1.26v-1.39C8.772 31.9 2.91 25.923 2.91 18.602c0-1.73.32-3.405.952-4.988A5.27 5.27 0 0 1 .035 8.552 5.27 5.27 0 0 1 5.3 3.288a5.27 5.27 0 0 1 4.895 3.334 13.5 13.5 0 0 1 6.209-1.513c7.439 0 13.49 6.053 13.49 13.493 0 2.099-.49 4.167-1.422 6.031h.984a1.26 1.26 0 0 1 1.258 1.26M4.805 10.94v.903h.99v-.93c.65-.14 1.139-.72 1.139-1.411 0-.797-.648-1.445-1.444-1.445-.838 0-.838-.23-.838-.454 0-.252.204-.457.455-.457h.565c.148 0 .272.126.272.274v.495h.99V7.42c0-.655-.501-1.196-1.14-1.257V5.26h-.99v.928c-.65.14-1.141.72-1.141 1.414 0 .659.317 1.444 1.827 1.444a.455.455 0 0 1 0 .91h-.565a.273.273 0 0 1-.273-.273v-.495h-.99v.495c0 .655.503 1.195 1.143 1.256M17.31 24.633h.798l.023-2.856a20 20 0 0 1-1.741-1.646c-1.349-1.448-1.93-2.598-1.776-3.514.074-.445.366-1.047 1.335-1.39 2.06-.731 3.536.434 4.963 1.56 1.164.919 2.264 1.787 3.712 1.787 1.54 0 3.109-.02 4.28-.041a12.47 12.47 0 0 0-3.902-8.998c-1.075 2.064-3.375 3.179-5.271 3.222l-.13.002c-1.842 0-3.27-.911-3.926-2.515-.315-.767-.685-.75-1.492-.64-.458.064-.976.135-1.453-.086-.346-.16-.767-.581-1.302-2.387q-.486.21-.955.462.087.467.089.96a5.27 5.27 0 0 1-5.705 5.241 12 12 0 0 0-.465 1.317c1.884.118 2.417.46 2.663.756.417.5.497 1.134.574 1.748.126 1.005.209 1.669 1.47 1.83 2.015.259 3.526 1.497 4.254 3.486.876 2.397.388 5.355-1.172 7.439 1.215.436 2.515.69 3.87.728v-5.205c0-.694.564-1.26 1.26-1.26m12.414 4.692H17.04v4.154c0 .147.124.27.27.27h12.145a.27.27 0 0 0 .269-.27zm0-3.432a.27.27 0 0 0-.269-.27H17.31a.274.274 0 0 0-.27.27v.33h12.684zm5.753-4.442-2.225 1.26c.325-1.336.49-2.715.49-4.11 0-4.631-1.804-8.986-5.079-12.261a17.23 17.23 0 0 0-12.26-5.08A17.3 17.3 0 0 0 10.3 2.366l.349.926a16.3 16.3 0 0 1 5.755-1.042c9.015 0 16.35 7.336 16.35 16.352 0 1.295-.152 2.577-.45 3.82l-1.241-2.193-.861.488 1.84 3.249a.495.495 0 0 0 .675.186l3.249-1.84z"/></svg>
